X:0573
T:Major Churchill's Dance.
M:C|
L:1/8
Q:1/2=104
I: :: ::
Z:Jack Campin * www.campin.me.uk * 2009
K:D
DFAF dAGF|Eeed ({d}c2)      BA|DFAF dAGF|EDEF D2D2::
defd gfed|cABc     d/c/d/e/ dA|defd gfed|cABc d2d2::
defd BcdB|ABAG     G2       F2|defd BcdB|AGFE D2D2:|

